src/main/resources/icons/d2.svg

<svg width="32" height="32" viewBox="0 0 32 32" fill="none" xmlns="http://www.w3.org/2000/svg">
<path fill-rule="evenodd" clip-rule="evenodd" d="M16.7262 25.7732C17.4579 25.9226 17.8237 25.9973 18.1104 25.7632C18.3971 25.5292 18.3971 25.1263 18.3971 24.3205L18.3971 15.1553C18.3971 14.4199 18.3971 14.0522 18.1686 13.8237C17.9402 13.5953 17.5725 13.5953 16.8371 13.5953H7.51521C6.6988 13.5953 6.2906 13.5953 6.05643 13.8869C5.82225 14.1785 5.90394 14.5479 6.06732 15.2866C6.61354 17.7563 7.84722 20.1045 9.76835 22.0257C11.7461 24.0034 14.1766 25.2526 16.7262 25.7732Z" fill="#476CEF"/>
<path fill-rule="evenodd" clip-rule="evenodd" d="M22.2819 20.2185C23.0135 20.3679 23.3793 20.4426 23.666 20.2085C23.9527 19.9745 23.9527 19.5716 23.9527 18.7659L23.9527 9.60058C23.9527 8.86519 23.9527 8.49749 23.7243 8.26903C23.4958 8.04058 23.1281 8.04058 22.3927 8.04058L13.0709 8.04058C12.2545 8.04058 11.8463 8.04058 11.6121 8.3322C11.3779 8.62383 11.4596 8.99318 11.623 9.73189C12.1692 12.2016 13.4029 14.5499 15.324 16.471C17.3018 18.4488 19.7323 19.6979 22.2819 20.2185Z" fill="#94ABFF"/>
<path fill-rule="evenodd" clip-rule="evenodd" d="M18.3963 18.7817L18.3963 15.1498C18.3963 14.4145 18.3963 14.0468 18.1679 13.8183C17.9394 13.5898 17.5717 13.5898 16.8363 13.5898L13.1187 13.5898C13.7098 14.6183 14.4448 15.5866 15.3238 16.4656C16.2586 17.4004 17.2945 18.1724 18.3963 18.7817Z" fill="#234CDA"/>
</svg>

<svg xmlns="http://www.w3.org/2000/svg" viewBox="5.51 7.64 18.79 18.6">
  <path fill="#476CEF" fill-rule="evenodd"
        d="M16.726 25.773c.732.15 1.098.224 1.384-.01.287-.234.287-.637.287-1.443v-9.165c0-.735 0-1.103-.228-1.331-.229-.229-.597-.229-1.332-.229H7.515c-.816 0-1.224 0-1.459.292-.234.291-.152.66.011 1.4a13.683 13.683 0 0 0 3.701 6.739 13.684 13.684 0 0 0 6.958 3.747z"
        clip-rule="evenodd"/>
  <path fill="#94ABFF" fill-rule="evenodd"
        d="M22.282 20.218c.732.15 1.097.225 1.384-.01.287-.234.287-.636.287-1.442V9.6c0-.736 0-1.104-.229-1.332-.228-.228-.596-.228-1.331-.228H13.07c-.817 0-1.225 0-1.459.291-.234.292-.152.661.011 1.4a13.683 13.683 0 0 0 3.701 6.739 13.683 13.683 0 0 0 6.958 3.748z"
        clip-rule="evenodd"/>
  <path fill="#234CDA" fill-rule="evenodd"
        d="M18.396 18.782V15.15c0-.735 0-1.103-.228-1.332-.229-.228-.596-.228-1.332-.228H13.12a13.762 13.762 0 0 0 2.205 2.876c.935.934 1.97 1.706 3.072 2.316z"
        clip-rule="evenodd"/>
</svg>
